Gurmukhi/0A1B.svg

<svg enable-background="new 0 0 336 592" viewBox="0 0 336 592" xmlns="http://www.w3.org/2000/svg"><path d="m148.2034 266.234741c-5.308426.41275-9.995407 1.502136-14.351044 3.722504-9.832626 5.01239-12.998253 15.12442-7.856751 24.894592 4.584061 8.710877 9.772278 10.940979 19.238663 9.234039 26.107895-4.707641 52.23729-5.598754 78.273453.609833 7.00293 1.669922 13.586975 4.422058 19.832886 8.040955 26.984955 15.635223 26.579193 54.699554 1.293472 71.115234-11.463867 7.442414-24.070389 11.412262-37.372559 13.113983-23.361618 2.988648-46.551132 2.171051-69.055847-5.591186-14.321152-4.939575-27.159027-12.235291-34.726974-26.094788-9.654679-17.681-4.921364-37.387298 11.401321-49.12912 1.192604-.85791 2.728302-1.321777 3.438278-2.896667-.392913-2.232941-2.546867-2.881806-3.99633-4.126923-12.173134-10.457153-17.262817-23.451233-13.637451-39.266662 2.623131-11.443238 10.734238-18.029587 21.194649-22.147095 9.282791-3.653992 19.051818-4.73407 28.897537-4.8078 21.329498-.159775 42.662582-.184677 63.990585.056121 4.930985.055665 6.444519-1.611099 6.126175-6.330398-.346954-5.143173-.155029-10.327744-.077591-15.492447.04065-2.710892-1.046203-4.044098-3.822998-3.954864-1.830719.058822-3.665558-.021637-5.49855-.021668-43.827988-.000641-87.656487-.096222-131.483315.129807-5.286979.027267-8.023544-1.549607-9.249458-6.622223-.776421-3.212693-2.387955-6.213852-3.39489-9.382965-1.332504-4.193787-.109871-5.838608 4.329842-6.159699 1.161026-.083954 2.331947-.039886 3.498329-.039719 64.325477.009171 128.650963.01796 192.976433.032288 12.364776.002762 12.365326.012878 16.819 11.566895.479034 1.242752.982147 2.477737 1.413849 3.736999 1.585693 4.625366.272857 6.639343-4.643158 6.685852-10.164551.096161-20.332611.164551-30.494843-.010132-3.889145-.066848-5.28775 1.2948-5.212906 5.217148.193863 10.161591.103684 20.329834.034592 30.494812-.056183 8.265335-4.37883 12.566086-12.487091 12.570236-23.33049.011933-46.661163-.033996-69.991348.052796-4.986496.018554-9.971283.501709-15.40596.800262m43.154342 65.667481c-7.230041 11.420929-7.142929 23.138519-1.341674 35.042297 4.32695 8.878662 4.773406 9.251282 14.394714 7.657257 10.241958-1.696808 20.122497-4.543976 28.100448-11.730499 11.993729-10.803864 10.586121-28.244873-2.937622-37.014862-12.32611-7.993317-27.945221-5.73935-38.215866 6.045807m-25.439285 10.066314c1.053177-7.731231 4.428604-14.385376 10.206528-20.207458-5.955796-1.033081-11.035446-.029266-16.122544.599548-9.987869 1.23468-19.666519 3.530152-28.136703 9.288483-14.670868 9.973816-14.082054 27.583923 1.131882 36.687866 6.991623 4.183807 14.711517 6.228211 22.654174 7.184906 6.112366.736267 12.323014 2.302033 19.090714.330963-6.36145-10.366272-9.576813-21.186706-8.824051-33.884308z"/></svg>

<svg version="1.1" id="Layer_1" xmlns="http://www.w3.org/2000/svg" xmlns:xlink="http://www.w3.org/1999/xlink" x="0px" y="0px"
	 width="100%" viewBox="0 0 336 592" enable-background="new 0 0 336 592" xml:space="preserve">
<path fill="#000000" opacity="1.000000" stroke="none" 
	d="
M148.203400,266.234741 
	C142.894974,266.647491 138.207993,267.736877 133.852356,269.957245 
	C124.019730,274.969635 120.854103,285.081665 125.995605,294.851837 
	C130.579666,303.562714 135.767883,305.792816 145.234268,304.085876 
	C171.342163,299.378235 197.471558,298.487122 223.507721,304.695709 
	C230.510651,306.365631 237.094696,309.117767 243.340607,312.736664 
	C270.325562,328.371887 269.919800,367.436218 244.634079,383.851898 
	C233.170212,391.294312 220.563690,395.264160 207.261520,396.965881 
	C183.899902,399.954529 160.710388,399.136932 138.205673,391.374695 
	C123.884521,386.435120 111.046646,379.139404 103.478699,365.279907 
	C93.824020,347.598907 98.557335,327.892609 114.880020,316.150787 
	C116.072624,315.292877 117.608322,314.829010 118.318298,313.254120 
	C117.925385,311.021179 115.771431,310.372314 114.321968,309.127197 
	C102.148834,298.670044 97.059151,285.675964 100.684517,269.860535 
	C103.307648,258.417297 111.418755,251.830948 121.879166,247.713440 
	C131.161957,244.059448 140.930984,242.979370 150.776703,242.905640 
	C172.106201,242.745865 193.439285,242.720963 214.767288,242.961761 
	C219.698273,243.017426 221.211807,241.350662 220.893463,236.631363 
	C220.546509,231.488190 220.738434,226.303619 220.815872,221.138916 
	C220.856522,218.428024 219.769669,217.094818 216.992874,217.184052 
	C215.162155,217.242874 213.327316,217.162415 211.494324,217.162384 
	C167.666336,217.161743 123.837837,217.066162 80.011009,217.292191 
	C74.724030,217.319458 71.987465,215.742584 70.761551,210.669968 
	C69.985130,207.457275 68.373596,204.456116 67.366661,201.287003 
	C66.034157,197.093216 67.256790,195.448395 71.696503,195.127304 
	C72.857529,195.043350 74.028450,195.087418 75.194832,195.087585 
	C139.520309,195.096756 203.845795,195.105545 268.171265,195.119873 
	C280.536041,195.122635 280.536591,195.132751 284.990265,206.686768 
	C285.469299,207.929520 285.972412,209.164505 286.404114,210.423767 
	C287.989807,215.049133 286.676971,217.063110 281.760956,217.109619 
	C271.596405,217.205780 261.428345,217.274170 251.266113,217.099487 
	C247.376968,217.032639 245.978363,218.394287 246.053207,222.316635 
	C246.247070,232.478226 246.156891,242.646469 246.087799,252.811447 
	C246.031616,261.076782 241.708969,265.377533 233.600708,265.381683 
	C210.270218,265.393616 186.939545,265.347687 163.609360,265.434479 
	C158.622864,265.453033 153.638077,265.936188 148.203400,266.234741 
M191.357742,331.902222 
	C184.127701,343.323151 184.214813,355.040741 190.016068,366.944519 
	C194.343018,375.823181 194.789474,376.195801 204.410782,374.601776 
	C214.652740,372.904968 224.533279,370.057800 232.511230,362.871277 
	C244.504959,352.067413 243.097351,334.626404 229.573608,325.856415 
	C217.247498,317.863098 201.628387,320.117065 191.357742,331.902222 
M165.918457,341.968536 
	C166.971634,334.237305 170.347061,327.583160 176.124985,321.761078 
	C170.169189,320.727997 165.089539,321.731812 160.002441,322.360626 
	C150.014572,323.595306 140.335922,325.890778 131.865738,331.649109 
	C117.194870,341.622925 117.783684,359.233032 132.997620,368.336975 
	C139.989243,372.520782 147.709137,374.565186 155.651794,375.521881 
	C161.764160,376.258148 167.974808,377.823914 174.742508,375.852844 
	C168.381058,365.486572 165.165695,354.666138 165.918457,341.968536 
z"/>
</svg>
